Newaita/actions/scalable/debug-run-cursor.svg

<?xml version="1.0" encoding="UTF-8"?>
<svg xmlns="http://www.w3.org/2000/svg" xmlns:xlink="http://www.w3.org/1999/xlink" width="512pt" height="512pt" viewBox="0 0 512 512" version="1.1">
<g id="surface1">
<path style=" stroke:none;fill-rule:nonzero;fill:rgb(0%,58.823532%,53.333336%);fill-opacity:1;" d="M 385.707031 25.167969 C 377.257812 25.167969 370.453125 31.972656 370.453125 40.425781 L 370.453125 41.664062 C 370.453125 50.117188 377.257812 56.921875 385.707031 56.921875 L 412.789062 56.921875 L 412.789062 459.125 L 385.707031 459.125 C 377.257812 459.125 370.453125 465.929688 370.453125 474.382812 L 370.453125 475.625 C 370.453125 484.074219 377.257812 490.878906 385.707031 490.878906 L 471.625 490.878906 C 480.074219 490.878906 486.878906 484.074219 486.878906 475.625 L 486.878906 474.382812 C 486.878906 465.929688 480.074219 459.125 471.625 459.125 L 444.542969 459.125 L 444.542969 56.921875 L 471.625 56.921875 C 480.074219 56.921875 486.878906 50.117188 486.878906 41.664062 L 486.878906 40.425781 C 486.878906 31.972656 480.074219 25.167969 471.625 25.167969 Z M 385.707031 25.167969 "/>
<path style=" stroke:none;fill-rule:nonzero;fill:rgb(25.882354%,25.882354%,25.882354%);fill-opacity:1;" d="M 220.28125 179.527344 C 216.199219 179.363281 212.230469 180.871094 209.285156 183.699219 C 206.339844 186.527344 204.675781 190.433594 204.671875 194.515625 L 204.671875 321.527344 C 204.671875 326.933594 207.582031 331.921875 212.285156 334.582031 C 216.988281 337.246094 222.757812 337.171875 227.394531 334.394531 L 333.234375 270.886719 C 337.753906 268.175781 340.519531 263.292969 340.519531 258.023438 C 340.519531 252.753906 337.753906 247.871094 333.234375 245.160156 L 227.394531 181.652344 C 225.238281 180.359375 222.792969 179.628906 220.28125 179.527344 Z M 234.675781 221.011719 L 296.363281 258.023438 L 234.675781 295.035156 Z M 234.675781 221.011719 "/>
<path style=" stroke:none;fill-rule:nonzero;fill:rgb(25.882354%,25.882354%,25.882354%);fill-opacity:1;" d="M 220.28125 179.527344 C 216.199219 179.363281 212.230469 180.871094 209.285156 183.699219 C 206.339844 186.527344 204.675781 190.433594 204.671875 194.515625 L 204.671875 321.527344 C 204.671875 326.933594 207.582031 331.921875 212.285156 334.582031 C 216.988281 337.246094 222.757812 337.171875 227.394531 334.394531 L 333.234375 270.886719 C 337.753906 268.175781 340.519531 263.292969 340.519531 258.023438 C 340.519531 252.753906 337.753906 247.871094 333.234375 245.160156 L 227.394531 181.652344 C 225.238281 180.359375 222.792969 179.628906 220.28125 179.527344 Z M 234.675781 221.011719 L 296.363281 258.023438 L 234.675781 295.035156 Z M 234.675781 221.011719 "/>
</g>
</svg>

<svg xmlns="http://www.w3.org/2000/svg" width="512pt" height="512pt" viewBox="0 0 512 512"><path d="M385.707 25.168a15.223 15.223 0 0 0-15.254 15.258v1.238a15.223 15.223 0 0 0 15.254 15.258h27.082v402.203h-27.082a15.223 15.223 0 0 0-15.254 15.258v1.242c0 8.45 6.805 15.254 15.254 15.254h85.918c8.45 0 15.254-6.805 15.254-15.254v-1.242a15.223 15.223 0 0 0-15.254-15.258h-27.082V56.922h27.082c8.45 0 15.254-6.805 15.254-15.258v-1.238a15.223 15.223 0 0 0-15.254-15.258zm0 0" fill="#009688"/><path d="M220.281 179.527a15.005 15.005 0 0 0-10.996 4.172 15.015 15.015 0 0 0-4.613 10.817v127.011a15.006 15.006 0 1 0 22.723 12.867l105.84-63.507a15 15 0 0 0 0-25.727l-105.84-63.508a15.01 15.01 0 0 0-7.114-2.125zm14.395 41.485l61.687 37.011-61.687 37.012zm0 0" fill="#424242"/><path d="M220.281 179.527a15.005 15.005 0 0 0-10.996 4.172 15.015 15.015 0 0 0-4.613 10.817v127.011a15.006 15.006 0 1 0 22.723 12.867l105.84-63.507a15 15 0 0 0 0-25.727l-105.84-63.508a15.01 15.01 0 0 0-7.114-2.125zm14.395 41.485l61.687 37.011-61.687 37.012zm0 0" fill="#424242"/></svg>
